GWA/img/main-screen-graph.svg

<svg width="143" height="76" viewBox="0 0 143 76" fill="none" xmlns="http://www.w3.org/2000/svg">
<path d="M3.5 22.1582V71.8418" stroke="#D4B982" stroke-width="7" stroke-linecap="round"/>
<path d="M20.5 33.1573V71.8427" stroke="#D4B982" stroke-width="7" stroke-linecap="round"/>
<path d="M37.5 54.1607L37.25 71.8393" stroke="#D4B982" stroke-width="7" stroke-linecap="round"/>
<path d="M54.5 11.158L54.25 71.842" stroke="#D4B982" stroke-width="7" stroke-linecap="round"/>
<path d="M71.5 22.1582L71.25 71.8418" stroke="#D4B982" stroke-width="7" stroke-linecap="round"/>
<path d="M88.5 4.15888L88.25 71.8411" stroke="#D4B982" stroke-width="7" stroke-linecap="round"/>
<path d="M105.5 12.1596L105.25 71.8404" stroke="#D4B982" stroke-width="7" stroke-linecap="round"/>
<path d="M122.5 44.1591L122.25 71.8409" stroke="#D4B982" stroke-width="7" stroke-linecap="round"/>
<path d="M139.5 22.1582L139.25 71.8418" stroke="#D4B982" stroke-width="7" stroke-linecap="round"/>
</svg>

<svg width="143" height="76" fill="none" xmlns="http://www.w3.org/2000/svg"><path d="M3.5 22.158v49.684m17-38.685v38.686m17-17.683l-.25 17.68M54.5 11.158l-.25 60.684M71.5 22.158l-.25 49.684M88.5 4.159l-.25 67.682M105.5 12.16l-.25 59.68m17.25-27.68l-.25 27.68m17.25-49.682l-.25 49.684" stroke="#D4B982" stroke-width="7" stroke-linecap="round"/></svg>
